X: 42565
T: When Sick Is It Tea That You Want?
R: jig
M: 6/8
K: Cmajor
|:G2 c cBA|GAG GEF|Gcc c2 d|ecA AcA|
Gcc cBA|GAG GEF|Gcc Bcd|1 ecB cBA:|2 ecB c2||
|:e/f/|gec cBc|AFF F2 a|afd d/e/dc|BGG GEF|
Gcc cBA|GAG GEF|Gcc Bcd|1 ecB c2:|2 ecB cBA||

